X: 32398
T: Piper's Broken Finger, The
R: reel
M: 4/4
K: Gmajor
eged ~G2 Bd|ez ed egga|gedB BA ~A2|bz ba ge dz|
eged ~G3 d|ez ed egga|gedB BA ~A2|bz ba ge d2-|
dz bg az ba|gedB dega|bg ~g2 az ba|gedB BA ~A2|
bz bg ~a3z|agab aged|BAAG az ba|ag bz aged|

